X:1
T:Title
%%score { 1 | 2 }
L:1/8
M:4/4
K:G
V:1 treble nm="Grand Piano"
V:2 bass 
V:1
 z4 z2[Q:1/4=100] [B,D][B,D] | [B,G]2 [B,G][B,G] [DB]2 [DA][DG] | E G3- G2 FE | %3
 [B,D]2 [DG]A B2 AG | A6 DD | [B,G]2 [B,G][B,G] [DB]2 [DA][DG] | [CE] [Ec]3- [Ec]2 [EB][EA] | %7
 [Dd]2 [EA][Ec] B2 BA |[M:3/4] [B,G]6 |[M:1/4] [Gd][Gd] |[M:4/4] [Fd]2 [Fc][GB] [FA]2 [CE][CF] | %11
 [B,G] [DB]3- [DB]2 BB | [G^c]2 [GB][GA] e2 Bc | [Fd]6 [Fd][Fc] | B2 Bc d2 [DG][^DF] | %15
 E [Ec]3- [Ec]2 [EB][EA] | [Dd]2 [EA][Ec] B2 B>A |[M:3/4] [B,G]6 |] %18
V:2
 z4 z2 [G,,G,][G,,G,] | [G,,D,]2 [G,,D,][G,,D,] [G,,G,]2 [A,,F,][B,,G,] | %2
 [C,G,C] [C,E,C]3- [C,E,C]2 [C,F,C][C,G,C] | [G,,G,]2 [B,,G,][D,F,D] [G,D]2 [E,G,^C][E,A,C] | %4
 [D,F,C]6 [D,F,C][D,F,C] | [G,,G,]2 [G,,D,][G,,D,] [G,,G,]2 [A,,F,][B,,G,] | %6
 [C,G,] [C,G,]3- [C,G,]2 [C,G,][C,G,] | [B,,G,]2 [C,G,][C,G,] [D,G,D]2 [D,G,D][D,F,C] | %8
[M:3/4] [G,,G,]6 |[M:1/4] [G,B,][G,B,] |[M:4/4] [D,A,]2 [D,A,][D,D] [D,C]2 [D,A,][D,A,] | %11
 [G,,G,] [G,,G,]3- [G,,G,]2 [G,D][G,D] | [E,A,]2 [E,B,][E,^C][K:treble] [A,CG]2 [A,DG][A,EG] | %13
 [D,D]6 [D,A,][D,D] | [G,DG]2 [G,G][G,A,G] [G,B,G]2[K:bass] [B,,B,][B,,A,] | %15
 [C,G,] [C,G,]3- [C,G,]2 [C,G,][C,G,] | [B,,G,]2 [C,G,][C,F,] [D,G,D]2 [D,F,D]>[D,F,C] | %17
[M:3/4] [G,,G,]6 |] %18

